!!! OTL: Sh/,Da\,Jie^ (Ten Stisters)
!!! YEC: Copyright, 2001, Chia-wei Lee
!!For Voice nly
!! [Andante con grazzia]
**kern	**silbe
*clefG2	*LXinhua
*D:	*ping-ying
*M4/4	*verse1
=7	=7
([2b	.
4b]	.
8dd	.
8ee	.
=8	=8
2ff#	.
4.ee	.
24dd	.
24ee	.
24dd	.
*M5/4	*
=9	=9
4.b	.
8dd	.
8f#	.
8a	.
2b)	.
*M4/4	*
=10	=10
8ff#	Shan-
8ff#	Cha/
8ee	Na\
8ff#	Ge
4ff#	Hua-
8ee	Lai/
8ff#	Ma
=11	=11
4b	Shan-
4ff#	Cha/
(4.ee	Hua,
24dd	|
24ee	|
24dd	|
*M(5/4)	*
=12	=12
4.b	|
8dd	|
8f#	|
8a	|
2b)	|
*M4/4	*
=13	=13
8dd	Sh/
(Q16dd	A
Q16ee	|
8dd)	|
8b	|
8ee	Ge\
4dd	Da\
(8b	Jie^
8a)	|
=14	=14
4dd	Cia^
(8b	Shan-
8a)	|
(q8f#	Cha/
8a	|
8f#	|
8e	|
8d	|
=15	=15
4.B	|
8A	|
2B)	|
=16	=16
8b	Hua-
8b	Lan/
8b	Na\
8dd	Ge\
4ff#	Xie-
(8ee	Zai\
8ff#)	|
=17	=17
4b	Shan-
4ff#	Po-
(4.ee	Shang\,
24dd	|
24ee	|
24dd	|
*M5/4	*
=18	=18
4.b	|
8dd	|
8f#	|
8a	|
2b)	|
*M4/4	*
=19	=19
4dd	Chang\
(Q16dd	A
Q16ee	|
8dd	|
8b)	|
8ee	Ge\
4dd	Shan-
(8b	Ge-
8a)	|
=20	=20
4dd	Zhuan^
(8b	Hui/
8a)	|
(q8f#	JIa-
8a	|
8f#	|
8e	|
8d	|
=21	=21
4.B	|
8A	|
2B)	|
=22	=22
4ff#	Xiao^
(8ff#	A
8dd)	|
(q8ff#	Ge-
4.ee	|
24dd	|
24ee	|
24dd	|
=23	=23
4.b)	|
8dd	Wo^
4f#	Shuo-
4b	Gai^
*M2/4	*
=24	=24
(q8a	Ni^
8b	|
8a	|
4f#)	|
*M4/4	*
=25	=25
8dd	Chang\
(Q16dd	A
Q16ee	|
8dd	|
8b)	|
8ee	Ge\
4dd	Shan-
(8b	Ge-
8a)	|
=26	=26
4dd	Zhuan^
(8b	Hui/
8a)	|
(q8f#	Jia-
8a	|
8f#	|
8e	|
8d	|
=27	=27
4.B	|
8A	|
2B)	|
*-	*-
